X:7384
T:the Swallowstail
O:england
R:Reel
M:4/4
K:ADor
gf|\
eA (3cBA eA (3cBA | Bd ef ge dB | \
G2 BG dG BG | AB cd eg fg |\
eA (3cBA eA (3cBA |
Bd ef g2 fg | \
af ge df ed | cA BG A2 :: AG |\
Aa ag a2 ed | cd ef ge dB |
G2 BG DG BG | Bd ef g2 fg | \
ea ag a2 ed | cd ef g2 fg |\
af ge df ed | cA BG A2 :|


